X:2
T:Polska fr{\aa}n Leksand
R:polska J
A:Leksand, Dalarna
Z:id:hn-jp-2
M:3/4
L:1/16
K:Ador
e2-|e3e ag3 e2gf|d2fd e6e2-|e3e ag3 e2gf|d2fd e6B2|
cBcd e2ec A2B2|cBcd e2ec A2B2|cBcd e2ec A2cB|^G2BG A6:|
K:D
|:f2-|f2a2 abaf a2a2|b4 gagf g2g2|a4 fafd efed|cdcB ABAG FGFE|
D2a2 abaf a2a2|b4 gagf g2g2|a4 fafd efed|c/d/cBc d6:|
<end>
<start>
